public/images/flags/MOZ.svg

<svg xmlns="http://www.w3.org/2000/svg" xml:space="preserve" fill-rule="evenodd" stroke-linecap="round" stroke-linejoin="round" clip-rule="evenodd" viewBox="0 0 640 480">
  <g transform="scale(.9375)">
    <clipPath id="_clip1">
      <path d="M0 0h682.7v512H0z"/>
    </clipPath>
    <g clip-path="url(#_clip1)">
      <path fill="#007168" d="M0 0h768v160H0z"/>
      <path fill="#fff" d="M0 160h768v16H0z"/>
      <path fill="#000001" d="M0 176h768v160H0z"/>
      <path fill="#fff" d="M0 336h768v16H0z"/>
      <path fill="#fce100" d="M0 352h768v160H0z"/>
      <path fill="#d21034" d="M0 0v512l336-256L0 0Z"/>
      <path fill="#fce100" d="m198.5 333-51.2-37.5L96.1 333l19.9-60.3-51.5-37.1 63.5.2 19.3-60.4 19.4 60.5 63.5-.3-51.5 37.1 19.8 60.3Z"/>
      <path fill="#fff" stroke="#000" stroke-width="1.1" d="M102.8 290.9h37c3 3.3 9.5 4.7 15.8 0 11.6-6.4 34 0 34 0l4.4-4.7-10.7-35.2-3.9-4.2s-8.3-5-24-3.3c-15.7 1.7-21.2-.5-21.2-.5s-13.7 1.6-17.6 3.6l-4.4 4.4-9.4 39.9Z"/>
      <path fill="none" stroke="#000" stroke-width="1.1" d="M110.3 281.8s35.2-4.4 45.4 9.1c-5.7 4-10.8 4.3-16.2.3.8-1.5 12.6-13.8 42.7-9.7"/>
      <path fill="none" stroke="#000" stroke-linecap="butt" stroke-linejoin="miter" stroke-width="1.2" d="m148 246.6-.3 38.8m31.7-38.3L186 278"/>
      <path fill="none" stroke="#000" stroke-width="1.1" d="m117 246.6-3.7 16"/>
      <path stroke="#000" stroke-width="1.1" d="m78.9 295.1 8.6 10.2c1 .6 2 .6 2.9 0l12.8-15.4 5.4-6.7c.9-1 1.1-2.1 1-3l10.4-9.3 2.2.2c-1-.2-1.7-.7-1-1.8l2.4-1.8 1.8 2.3s-2.6 3.4-2.9 3.4h-2.8l-5.4 4.9 2.4 2 3.5 9.8 4.4-3.1-2.8-10 6.1-6.7-2.3-3.6 1.6-2s21.3 13.4 29.6 9.8c.2 0 .5-9.6.5-9.6s-22.2-2.3-22.7-6.7 5-5 5-5l-2.4-3.2.5-1.8 3.9 4.8 8.7-7.4 51.5 58.6c2.8-1.1 3.4-1.8 3.6-4.6L155 241.5l3.8-4.1c.8-.9 1-1.2 1-2.6l6-5.1a7.3 7.3 0 0 1 3.8 3L186 219c.4.4 1.7.8 2.6.4l26.9-25.9-29.3 20.7-1-.7c0-.9 1-1 0-2.6-1.2-1.4-2.9 1.3-3.1 1.3-.3 0-4.3-1.4-5.2-3.2l-.2 4.7-7.5 7-5.7-.3-8.2 8-1 3 1.3 2.7s-4.4 3.8-4.4 3.6c0-.3-.9-1.2-1-1.3l3.8-3.4.5-2.3-1.2-2c-.4.3-5.2 5.4-5.5 4.8l-14-15.5.8-2.9-8.7-9.5c-3.2-1.1-8.3-1.3-9.3 5.7-.8 1.6-7.4.2-7.4.2l-3.6.8L85.2 241l11.3 13.6 23.2-29.3.7-8.3 4.8 5.4c1.7.2 3.2.3 4.7-.5l13.7 15.3-2.3 2.3 2 2.2 2.4-1.6.9 1.3c-1.1.6-2 1.5-3.1 2.1-1.8-1.2-3.6-2.7-3.5-5l-7.7 6.4-.3 1.2-22.9 19-2 .3-.5 6 14.9-12.4v-1.8l1.5 1.3 11.6-9.3s.8 1 .5 1c-.3 0-10.3 9.3-10.3 9.3l-.2 1-1.8 1.6-1-.8-14 12.4h-2l-7.7 7.7c-2 .2-3.7.4-5.4 1.5l-13.8 12.2Z"/>
    </g>
  </g>
</svg>

<?xml version="1.0" encoding="UTF-8" standalone="no"?>
<!DOCTYPE svg PUBLIC "-//W3C//DTD SVG 1.1//EN" "http://www.w3.org/Graphics/SVG/1.1/DTD/svg11.dtd">
<svg width="100%" height="100%" viewBox="0 0 640 480" version="1.1" xmlns="http://www.w3.org/2000/svg" xmlns:xlink="http://www.w3.org/1999/xlink" xml:space="preserve" xmlns:serif="http://www.serif.com/" style="fill-rule:evenodd;clip-rule:evenodd;stroke-linecap:round;stroke-linejoin:round;">
    <g transform="matrix(0.9375,0,0,0.9375,0,0)">
        <clipPath id="_clip1">
            <rect x="0" y="0" width="682.7" height="512"/>
        </clipPath>
        <g clip-path="url(#_clip1)">
            <rect x="0" y="0" width="768" height="160" style="fill:rgb(0,113,104);"/>
            <rect x="0" y="160" width="768" height="16" style="fill:white;"/>
            <rect x="0" y="176" width="768" height="160" style="fill:rgb(0,0,1);"/>
            <rect x="0" y="336" width="768" height="16" style="fill:white;"/>
            <rect x="0" y="352" width="768" height="160" style="fill:rgb(252,225,0);"/>
            <path d="M0,0L0,512L336,256L0,0Z" style="fill:rgb(210,16,52);"/>
            <path d="M198.5,333L147.3,295.5L96.1,333L116,272.7L64.5,235.6L128,235.8L147.3,175.4L166.7,235.9L230.2,235.6L178.7,272.7L198.5,333Z" style="fill:rgb(252,225,0);"/>
            <path d="M102.8,290.9L139.8,290.9C142.8,294.2 149.3,295.6 155.6,290.9C167.2,284.5 189.6,290.9 189.6,290.9L194,286.2L183.3,251L179.4,246.8C179.4,246.8 171.1,241.8 155.4,243.5C139.7,245.2 134.2,243 134.2,243C134.2,243 120.5,244.6 116.6,246.6L112.2,251L102.8,290.9Z" style="fill:white;stroke:black;stroke-width:1.1px;"/>
            <path d="M110.3,281.8C110.3,281.8 145.5,277.4 155.7,290.9C150,294.9 144.9,295.2 139.5,291.2C140.3,289.7 152.1,277.4 182.2,281.5" style="fill:none;fill-rule:nonzero;stroke:black;stroke-width:1.1px;"/>
            <path d="M148,246.6L147.7,285.4M179.4,247.1L186,278" style="fill:none;fill-rule:nonzero;stroke:black;stroke-width:1.2px;stroke-linecap:butt;stroke-linejoin:miter;"/>
            <path d="M117,246.6L113.3,262.6" style="fill:none;fill-rule:nonzero;stroke:black;stroke-width:1.1px;"/>
            <path d="M78.9,295.1L87.5,305.3C88.5,305.9 89.5,305.9 90.4,305.3L103.2,289.9L108.6,283.2C109.5,282.2 109.7,281.1 109.6,280.2L120,270.9L122.2,271.1C121.2,270.9 120.5,270.4 121.2,269.3L123.6,267.5L125.4,269.8C125.4,269.8 122.8,273.2 122.5,273.2L119.7,273.2L114.3,278.1L116.7,280.1L120.2,289.9L124.6,286.8L121.8,276.8L127.9,270.1L125.6,266.5L127.2,264.5C127.2,264.5 148.5,277.9 156.8,274.3C157,274.3 157.3,264.7 157.3,264.7C157.3,264.7 135.1,262.4 134.6,258C134.1,253.6 139.6,253 139.6,253L137.2,249.8L137.7,248L141.6,252.8L150.3,245.4L201.8,304C204.6,302.9 205.2,302.2 205.4,299.4L155,241.5L158.8,237.4C159.6,236.5 159.8,236.2 159.8,234.8L165.8,229.7C167.371,230.239 168.712,231.297 169.6,232.7L186,219C186.4,219.4 187.7,219.8 188.6,219.4L215.5,193.5L186.2,214.2L185.2,213.5C185.2,212.6 186.2,212.5 185.2,210.9C184,209.5 182.3,212.2 182.1,212.2C181.8,212.2 177.8,210.8 176.9,209L176.7,213.7L169.2,220.7L163.5,220.4L155.3,228.4L154.3,231.4L155.6,234.1C155.6,234.1 151.2,237.9 151.2,237.7C151.2,237.4 150.3,236.5 150.2,236.4L154,233L154.5,230.7L153.3,228.7C152.9,229 148.1,234.1 147.8,233.5L133.8,218L134.6,215.1L125.9,205.6C122.7,204.5 117.6,204.3 116.6,211.3C115.8,212.9 109.2,211.5 109.2,211.5L105.6,212.3L85.2,241L96.5,254.6L119.7,225.3L120.4,217L125.2,222.4C126.9,222.6 128.4,222.7 129.9,221.9L143.6,237.2L141.3,239.5L143.3,241.7L145.7,240.1L146.6,241.4C145.5,242 144.6,242.9 143.5,243.5C141.7,242.3 139.9,240.8 140,238.5L132.3,244.9L132,246.1L109.1,265.1L107.1,265.4L106.6,271.4L121.5,259L121.5,257.2L123,258.5L134.6,249.2C134.6,249.2 135.4,250.2 135.1,250.2C134.8,250.2 124.8,259.5 124.8,259.5L124.6,260.5L122.8,262.1L121.8,261.3L107.8,273.7L105.8,273.7L98.1,281.4C96.1,281.6 94.4,281.8 92.7,282.9L78.9,295.1Z" style="stroke:black;stroke-width:1.1px;"/>
        </g>
    </g>
</svg>
